ServerOptions.devices;
ServerOptions.outDevices;
Server.default.options.outDevice_("Built-in Output");




//writing sound
Tdef(\pencilFast).play;
Tdef(\pencilFast).stop;


Tdef(\poem).play;
Tdef(\poem).stop;


s.record;
s.stop;
s.plotTree;


/*
//play background sound

Tdef(\loopSequence).play;

//order it
~keepLooping = false;